static/logos/hopin-glyph-color.svg

<svg width="50" height="49" viewBox="0 0 50 49" fill="none" xmlns="http://www.w3.org/2000/svg">
<path d="M29.5992 9.48632C29.5427 11.7368 27.9565 14.9437 25.2942 14.9437C23.6513 14.9437 22.2919 13.5934 22.2919 11.9618V11.9056C22.2352 9.26128 21.0457 6.95453 19.1763 5.32294C17.7602 4.14144 16.0041 3.35378 14.0781 3.12873C15.7209 1.44088 18.0434 0.428162 20.5925 0.428162C23.8213 0.428162 26.7669 2.2848 28.4663 4.98538C29.2594 6.33567 29.6559 7.96727 29.5992 9.48632Z" fill="#175FFF"/>
<path d="M19.0603 9.7113C20.4763 11.5117 21.3261 14.9437 19.2869 16.6315C17.984 17.7005 16.1146 17.5317 15.0384 16.294C13.2823 14.3248 10.8465 13.3121 8.41071 13.2558C6.54138 13.1995 4.67203 13.7622 3.08594 14.8311C3.25588 12.5244 4.33217 10.2177 6.31478 8.58607C8.86388 6.50438 12.4326 5.88549 15.4915 7.12324C16.9077 7.62961 18.1539 8.5298 19.0603 9.7113Z" fill="#175FFF"/>
<path d="M11.1306 16.5755C13.3399 17.0256 16.2855 19.1636 15.8323 21.7517C15.5491 23.3832 13.963 24.4523 12.3202 24.1709H12.2636C9.65784 23.7771 7.10874 24.5648 5.23941 26.0838C3.82324 27.209 2.69032 28.8407 2.18049 30.6973C0.820973 28.7844 0.197861 26.3652 0.594388 23.8334C1.2175 20.6263 3.54001 17.9258 6.71222 16.8569C8.12837 16.4068 9.71449 16.2942 11.1306 16.5755Z" fill="#175FFF"/>
<path d="M9.49079 26.9275C11.4734 25.8586 15.0988 25.6334 16.4017 27.884C17.2514 29.2906 16.7415 31.1471 15.3254 31.9911C13.0595 33.3413 11.6433 35.5356 11.1335 37.9548C10.7937 39.7552 10.9636 41.6681 11.8133 43.4123C9.54742 42.8496 7.4515 41.3869 6.20529 39.1927C4.56254 36.3232 4.61917 32.7788 6.31857 29.9657C7.11163 28.6717 8.18792 27.6027 9.49079 26.9275Z" fill="#175FFF"/>
<path d="M14.9251 35.8733C15.7748 33.7915 18.3805 31.316 20.8164 32.2162C22.4025 32.7788 23.1956 34.5229 22.6291 36.0421C21.7793 38.5175 22.1193 41.1056 23.3089 43.2437C24.2152 44.8752 25.5746 46.1692 27.3308 47.0131C25.1781 48.0258 22.6856 48.251 20.3066 47.3508C17.191 46.2254 14.9251 43.4687 14.4153 40.2054C14.2453 38.7427 14.4153 37.2235 14.9251 35.8733Z" fill="#175FFF"/>
<path d="M24.9016 39.2486C24.1653 37.1108 24.5618 33.5661 27.0541 32.6659C28.6403 32.1034 30.3397 32.8911 30.9062 34.4663C31.8691 36.8858 33.7951 38.6861 36.1176 39.5863C37.817 40.2613 39.7997 40.3738 41.6689 39.9238C40.706 42.0617 38.8934 43.8059 36.5141 44.7061C33.3985 45.8313 29.8299 45.1561 27.3941 42.9619C26.2612 41.8931 25.3549 40.6552 24.9016 39.2486Z" fill="#175FFF"/>
<path d="M34.7582 35.4796C32.8322 34.2981 30.793 31.3161 32.1524 29.0658C33.0022 27.6592 34.8149 27.1529 36.2876 27.9406C38.6101 29.1783 41.2159 29.3471 43.5951 28.5594C45.3511 27.9406 46.9372 26.8152 48.0701 25.24C48.6932 27.4904 48.4666 29.966 47.1637 32.1602C45.5211 35.0294 42.3487 36.7736 39.0634 36.6611C37.4772 36.6611 35.9478 36.2673 34.7582 35.4796Z" fill="#175FFF"/>
<path d="M39.852 26.3085C37.5861 26.6462 34.1307 25.6333 33.6776 23.0454C33.3376 21.47 34.4705 19.8946 36.1134 19.6133H36.1699C38.7757 19.107 40.8717 17.5317 42.1178 15.45C43.0809 13.8746 43.534 12.018 43.3642 10.1051C45.2901 11.3991 46.7628 13.4808 47.1594 15.9563C47.7259 19.1633 46.423 22.5391 43.874 24.5644C42.6844 25.4646 41.2682 26.1398 39.852 26.3085Z" fill="#175FFF"/>
<path d="M37.8167 16.0691C36.2873 17.757 33.0017 19.2198 30.9625 17.5319C29.6596 16.463 29.4896 14.6063 30.5659 13.3123C32.2086 11.2869 32.8317 8.69883 32.4352 6.27958C32.1521 4.4792 31.3023 2.73508 29.9429 1.32853C32.2654 1.10348 34.7011 1.77862 36.6838 3.41022C39.2329 5.49191 40.4225 8.92389 39.7427 12.1308C39.4594 13.5936 38.7796 15.0002 37.8167 16.0691Z" fill="#175FFF"/>
</svg>

<svg xmlns="http://www.w3.org/2000/svg" width="65.306" height="64" fill="none" viewBox="0 0 50 49"><path fill="#175FFF" d="M29.6 9.486c-.057 2.25-1.644 5.458-4.306 5.458-1.643 0-3.002-1.35-3.002-2.982v-.056c-.057-2.645-1.246-4.951-3.116-6.583a9.708 9.708 0 0 0-5.098-2.194c1.643-1.688 3.965-2.7 6.515-2.7 3.228 0 6.174 1.856 7.873 4.556A8.46 8.46 0 0 1 29.6 9.486ZM19.06 9.711c1.416 1.8 2.266 5.233.227 6.92a3.047 3.047 0 0 1-4.249-.337c-1.756-1.97-4.191-2.982-6.627-3.038-1.87-.056-3.739.506-5.325 1.575a8.935 8.935 0 0 1 3.229-6.245c2.549-2.082 6.118-2.7 9.176-1.463a7.817 7.817 0 0 1 3.57 2.588ZM11.13 16.576c2.21.45 5.155 2.588 4.702 5.176-.283 1.631-1.869 2.7-3.512 2.419h-.056a9.042 9.042 0 0 0-7.025 1.913 9.024 9.024 0 0 0-3.059 4.613C.821 28.784.198 26.365.594 23.833a9.251 9.251 0 0 1 6.118-6.976c1.416-.45 3.002-.563 4.419-.281ZM9.49 26.927c1.983-1.068 5.609-1.294 6.912.957.85 1.407.34 3.263-1.077 4.107-2.265 1.35-3.682 3.545-4.191 5.964-.34 1.8-.17 3.713.68 5.457-2.267-.562-4.362-2.025-5.609-4.22a9.118 9.118 0 0 1 .114-9.226c.793-1.294 1.869-2.363 3.172-3.039ZM14.925 35.873c.85-2.081 3.456-4.557 5.891-3.657 1.587.563 2.38 2.307 1.813 3.826-.85 2.475-.51 5.064.68 7.202.906 1.631 2.266 2.925 4.022 3.77-2.153 1.012-4.645 1.237-7.024.337a9.114 9.114 0 0 1-5.892-7.146c-.17-1.462 0-2.981.51-4.332ZM24.902 39.249c-.737-2.138-.34-5.683 2.152-6.583 1.586-.563 3.286.225 3.852 1.8.963 2.42 2.89 4.22 5.212 5.12 1.699.675 3.682.788 5.55.338-.962 2.138-2.775 3.882-5.154 4.782-3.116 1.125-6.684.45-9.12-1.744-1.133-1.069-2.04-2.307-2.492-3.713ZM34.758 35.48c-1.926-1.182-3.965-4.164-2.606-6.414a3.112 3.112 0 0 1 4.136-1.125 9.24 9.24 0 0 0 7.307.618c1.756-.618 3.342-1.744 4.475-3.319.623 2.25.397 4.726-.906 6.92-1.643 2.87-4.815 4.614-8.1 4.501-1.587 0-3.116-.394-4.306-1.181ZM39.852 26.308c-2.266.338-5.721-.675-6.174-3.263-.34-1.575.793-3.15 2.435-3.432h.057a8.871 8.871 0 0 0 5.948-4.163 8.73 8.73 0 0 0 1.246-5.345c1.926 1.294 3.399 3.376 3.795 5.851.567 3.207-.736 6.583-3.285 8.608-1.19.9-2.606 1.576-4.022 1.744ZM37.817 16.07c-1.53 1.687-4.815 3.15-6.855 1.462-1.302-1.069-1.472-2.926-.396-4.22a8.906 8.906 0 0 0 1.87-7.032 9.207 9.207 0 0 0-2.493-4.951 9.199 9.199 0 0 1 6.74 2.081c2.55 2.082 3.74 5.514 3.06 8.72-.284 1.464-.963 2.87-1.926 3.94Z"/></svg>
